theme/img/business/txt_e_2.svg

<svg width="61" height="64" viewBox="0 0 61 64" fill="none" xmlns="http://www.w3.org/2000/svg">
<path d="M60.8906 36.9375H17.6719C18.0469 40.0625 19.0156 42.5938 20.5781 44.5312C22.7969 47.3438 26.1562 48.75 30.6562 48.75C34.6562 48.75 37.9062 47.5938 40.4062 45.2812C41.625 44.125 42.5781 42.5156 43.2656 40.4531L60 45.1406C58.75 47.9531 57.625 50.0625 56.625 51.4688C51.125 59.2188 42.5938 63.0938 31.0312 63.0938C21.5938 63.0938 14.1719 60.375 8.76562 54.9375C6.04688 52.2188 4.01562 49.1562 2.67188 45.75C0.890625 41.3125 0 36.5781 0 31.5469C0 24.5781 1.51562 18.5938 4.54688 13.5938C7.29688 9.0625 10.9688 5.64062 15.5625 3.32812C19.9688 1.10938 24.9531 0 30.5156 0C38.3281 0 44.7656 2.09375 49.8281 6.28125C55.7656 11.2188 59.2188 18.3594 60.1875 27.7031C60.4688 30.2969 60.6562 32.7344 60.75 35.0156C60.75 35.3906 60.7969 36.0312 60.8906 36.9375ZM17.9531 23.7188H42.5625C42.0938 21.5625 41.2969 19.7656 40.1719 18.3281C37.9844 15.6406 34.7812 14.2969 30.5625 14.2969C23.7812 14.2969 19.5781 17.4375 17.9531 23.7188Z" fill="url(#paint0_linear_194_106)"/>
<defs>
<linearGradient id="paint0_linear_194_106" x1="-784.969" y1="25.3906" x2="272.031" y2="25.3906" gradientUnits="userSpaceOnUse">
<stop stop-color="#001F63"/>
<stop offset="1" stop-color="#00E1EC"/>
</linearGradient>
</defs>
</svg>

<svg xmlns="http://www.w3.org/2000/svg" width="61" height="64" fill="none"><path fill="url(#a)" d="M60.89 36.938H17.673q.563 4.687 2.906 7.593 3.328 4.22 10.078 4.219 6 0 9.75-3.469 1.828-1.734 2.86-4.828L60 45.141q-1.875 4.218-3.375 6.328-8.25 11.625-25.594 11.625-14.156 0-22.265-8.157-4.079-4.077-6.094-9.187Q0 39.094 0 31.547q0-10.453 4.547-17.953Q8.672 6.798 15.563 3.328 22.172 0 30.516 0q11.718 0 19.312 6.281 8.906 7.406 10.36 21.422.42 3.89.562 7.313 0 .562.14 1.922m-42.937-13.22h24.61q-.704-3.233-2.391-5.39-3.281-4.03-9.61-4.031-10.17 0-12.609 9.422"/><defs><linearGradient id="a" x1="-784.969" x2="272.031" y1="25.391" y2="25.391" gradientUnits="userSpaceOnUse"><stop stop-color="#001F63"/><stop offset="1" stop-color="#00E1EC"/></linearGradient></defs></svg>
